src/images/attach-file.svg

<svg width="17" height="16" viewBox="0 0 17 16" fill="none" xmlns="http://www.w3.org/2000/svg">
<path d="M15.3936 1.35249C13.5502 -0.451173 10.6033 -0.450781 8.76035 1.35338L1.03099 9.08278C-0.366632 10.5134 -0.339922 12.806 1.09065 14.2037C2.49769 15.5783 4.74483 15.5783 6.15186 14.2037L13.1509 7.20459C14.0608 6.2947 14.0608 4.81944 13.1509 3.90955C12.241 2.99966 10.7658 2.99966 9.85589 3.90955L3.16113 10.6043C2.92762 10.8461 2.93432 11.2313 3.1761 11.4649C3.41196 11.6927 3.78587 11.6927 4.02173 11.4649L10.7165 4.77012C11.1604 4.34483 11.8651 4.35999 12.2903 4.80393C12.7027 5.23446 12.7027 5.91348 12.2903 6.34402L5.2913 13.343C4.34578 14.2751 2.82367 14.2642 1.8916 13.3187C0.968941 12.3827 0.968941 10.8793 1.8916 9.94335L9.62096 2.21395C10.9978 0.83665 13.2303 0.836258 14.6076 2.21302C15.9849 3.58978 15.9853 5.82241 14.6086 7.1997L6.87917 14.9291C6.62387 15.1477 6.59413 15.532 6.81277 15.7872C7.03141 16.0425 7.41562 16.0723 7.67091 15.8536C7.69473 15.8333 7.71692 15.8111 7.73731 15.7872L15.4667 8.05785C17.2982 6.18604 17.2655 3.18392 15.3936 1.35249Z" fill="white"/>
</svg>

<svg viewBox="0 0 17 16" fill="none" xmlns="http://www.w3.org/2000/svg">
<path d="m15.4 1.4c-1.8-1.9-4.8-1.9-6.6 0l-7.8 7.7c-1.4 1.4-1.3 3.7.1 5.1c1.4 1.4 3.6 1.4 5.1 0l7-7c.9-.9.9-2.4 0-3.3c-1-.9-2.4-.9-3.3 0l-6.7 6.7c-.3.2-.3.6 0 .9c.2.2.6.2.8 0l6.7-6.7c.5-.5 1.2-.4 1.6 0c.4.4.4 1.1 0 1.5l-7 7c-1 1-2.5 1-3.4 0c-.9-.9-.9-2.4 0-3.4l7.7-7.7c1.4-1.4 3.6-1.4 5 0c1.4 1.4 1.4 3.6 0 5l-7.7 7.7c-.3.2-.3.6-.1.9c.2.2.6.3.9.1c0-.1 0-.1 0-.1l7.8-7.7c1.8-1.9 1.8-4.9-.1-6.7z" fill="currentColor"/>
</svg>
